X: 9
T: AVANT DEUX DU COGLAIS
M: 6/8
L: 1/8
Q:1/4=160
K:G
|:GAB GAB|cBA B3/2 z/2 |GAB dcB|cAA A3/2 z/2:|
E3/2 z/2 F G3|G3/2 z/2 GAB|GAB cBA|B3/2 z/2 GAB|
dcB cAA|A3/2 z/2 GAB|GAB cBA|B3/2 z/2 GAB|
dcB cBA|G3/2 z/2 E3/2 z/2 F|G3 G3/2 z/2 |G3/2 z/2 B d3/2 z/2 d|
e3/2 z/2 e d3/2 z/2 B|G3/2 z/2 A BAB|cBA B3/2 z/2 A|G3/2 z/2 B d3/2 z/2 
d|
e3/2 z/2 e d3/2 z/2 B|G3/2 z/2 A BAB|cBA G3/2 z/2 |G3/2|
